static/fa/svgs/solid/clipboard-question.svg

<svg xmlns="http://www.w3.org/2000/svg" viewBox="0 0 384 512"><!--! Font Awesome Free 6.1.1 by @fontawesome - https://fontawesome.com License - https://fontawesome.com/license/free (Icons: CC BY 4.0, Fonts: SIL OFL 1.1, Code: MIT License) Copyright 2022 Fonticons, Inc.--><path d="M282.5 64H320c35.3 0 64 28.65 64 64v320c0 35.3-28.7 64-64 64H64c-35.35 0-64-28.7-64-64V128c0-35.35 28.65-64 64-64h37.5C114.6 26.71 150.2 0 192 0s77.4 26.71 90.5 64zM192 128c17.7 0 32-14.3 32-32 0-17.67-14.3-32-32-32s-32 14.33-32 32c0 17.7 14.3 32 32 32zm-86.6 102.5c-4.5 12.5 2.1 26.2 13.7 30.7 13.4 4.4 27.1-2.1 31.5-14.6l.5-1.3c1.1-3.2 4.1-5.3 7.5-5.3h58.3c8.3 0 15.1 6.8 15.1 15.1 0 5.5-2.9 10.5-7.6 13.2l-44.3 25.4c-7.5 4.3-12.1 12.2-12.1 20.8V328c0 13.3 10.7 24 24 24 13.1 0 23.8-10.5 23.1-23.6l33.2-18.5c19.6-11.2 31.7-32.1 31.7-54.8 0-34.8-28.3-63.1-63.1-63.1h-58.3c-23.7 0-44.8 14.9-52.8 37.3l-.4 1.2zM192 384c-17.7 0-32 14.3-32 32s14.3 32 32 32 32-14.3 32-32-14.3-32-32-32z"/></svg>

<svg xmlns="http://www.w3.org/2000/svg" viewBox="0 0 384 512"><!--! Font Awesome Free 6.1.1 by @fontawesome - https://fontawesome.com License - https://fontawesome.com/license/free (Icons: CC BY 4.0, Fonts: SIL OFL 1.1, Code: MIT License) Copyright 2022 Fonticons, Inc. --><path d="M282.5 64H320C355.3 64 384 92.65 384 128V448C384 483.3 355.3 512 320 512H64C28.65 512 0 483.3 0 448V128C0 92.65 28.65 64 64 64H101.5C114.6 26.71 150.2 0 192 0C233.8 0 269.4 26.71 282.5 64zM192 128C209.7 128 224 113.7 224 96C224 78.33 209.7 64 192 64C174.3 64 160 78.33 160 96C160 113.7 174.3 128 192 128zM105.4 230.5C100.9 243 107.5 256.7 119.1 261.2C132.5 265.6 146.2 259.1 150.6 246.6L151.1 245.3C152.2 242.1 155.2 240 158.6 240H216.9C225.2 240 232 246.8 232 255.1C232 260.6 229.1 265.6 224.4 268.3L180.1 293.7C172.6 298 168 305.9 168 314.5V328C168 341.3 178.7 352 192 352C205.1 352 215.8 341.5 215.1 328.4L248.3 309.9C267.9 298.7 280 277.8 280 255.1C280 220.3 251.7 192 216.9 192H158.6C134.9 192 113.8 206.9 105.8 229.3L105.4 230.5zM192 384C174.3 384 160 398.3 160 416C160 433.7 174.3 448 192 448C209.7 448 224 433.7 224 416C224 398.3 209.7 384 192 384z"/></svg>
